!!!COM: Fux, Johann Joseph
!!!OMD: Gradus ad Parnassum Exercise
!!!YEC: CC0 1.0 Universal (Public Domain). Mark Gotham and FourScoreAndMore.org waive all rights to this document.
**kern	**kern	**kern	**kern
*part4	*part3	*part2	*part1
*staff4	*staff3	*staff2	*staff1
*I"4	*I"3	*I"2	*I"1
*I'Pno	*I'Pno	*I'Pno	*I'Pno
!!LO:LB:g=z
*clefF4	*clefGv2	*clefG2	*clefG2
*k[]	*k[]	*k[]	*k[]
!!LO:TX:omd:t=
*M4/4	*M4/4	*M4/4	*M4/4
=317	=317	=317	=317
!	!	!	!LO:TX:a:t=Fig. 202; Species&colon; 5; Modal final&colon; d; Cantus firmus&colon; 4
1D	2r	1f	1dd
.	[2A/	.	.
=318	=318	=318	=318
1F	2A/]	1a	1dd
.	[2d\	.	.
=319	=319	=319	=319
1E	2d\]	1g	1ee
.	2c#X\	.	.
=320	=320	=320	=320
1D	4d\	1f	1a
.	4e\	.	.
.	[2f\	.	.
=321	=321	=321	=321
1G	2f\]	1g	1b-X
.	2e\	.	.
=322	=322	=322	=322
1F	2f\	1c	1a
.	[2F/	.	.
=323	=323	=323	=323
1A	2F/]	1c	1a
.	[2f\	.	.
=324	=324	=324	=324
1G	4f\]	1g	1b-X
.	8e\L	.	.
.	8d\J	.	.
.	[2e\	.	.
=325	=325	=325	=325
1F	2e\]	2c/	1a
.	[2d\	2d/	.
=326	=326	=326	=326
1E	2d\]	1e	1g
.	2c#X\	.	.
=327	=327	=327	=327
1D	1d	1A	1f#X
==	==	==	==
*-	*-	*-	*-
!!!software: music21 v.9.7.1
!!!software: music21 v.9.7.1
!!!software: MuseScore 3.4.2
!!!RDF**kern: > = above
!!!RDF**kern: < = below
